X:25
T:Rambling Pitchfork, The
S:as played in Madison, WI
N:transcribed by Alan Ng w/o ornaments
Z: id:ng-jigs-25 transcribed January 27, 2000
M:6/8
K:DMaj
E|FEF AFF|dFF AFD|GFG ABc|ded cAG|\
FEF AFF|dFF AFD|GFG BGB|AFD D2::\
A|dcd fdf|ecA AFA|dcd fdf|faf gfe|\
dcd fdf|ecA AGF|GFG BGB|AFD D2:|**
